dist/img/sprites/icon1.svg

<svg width="65" height="65" viewBox="0 0 65 65" fill="none" xmlns="http://www.w3.org/2000/svg">
<rect x="0.625" y="0.115234" width="64" height="63.9956" rx="12.4414" fill="#F8F1EC"/>
<path d="M17.0156 47.7215L38.8693 25.8678M38.8693 25.8678H41.9912C43.6472 25.8678 45.2354 25.21 46.4063 24.039C47.5773 22.8681 48.2351 21.2799 48.2351 19.6239V16.502H45.1132C43.4572 16.502 41.869 17.1598 40.6981 18.3307C39.5271 19.5017 38.8693 21.0899 38.8693 22.7459V25.8678ZM19.3103 32.939L21.6986 30.5507L24.0868 32.939C25.1068 33.963 25.6794 35.3494 25.6794 36.7946C25.6794 38.2399 25.1068 39.6263 24.0868 40.6502L21.6986 43.0385L19.3103 40.6502C18.2903 39.6263 17.7177 38.2399 17.7177 36.7946C17.7177 35.3494 18.2903 33.963 19.3103 32.939ZM25.5542 26.6951L27.9425 24.3068L30.3307 26.6951C31.3507 27.7191 31.9234 29.1055 31.9234 30.5507C31.9234 31.996 31.3507 33.3824 30.3307 34.4063L27.9425 36.7946L25.5542 34.4063C24.5342 33.3824 23.9616 31.996 23.9616 30.5507C23.9616 29.1055 24.5342 27.7191 25.5542 26.6951ZM31.7981 20.4512L34.1864 18.0629L36.5746 20.4512C37.5946 21.4752 38.1673 22.8616 38.1673 24.3068C38.1673 25.7521 37.5946 27.1385 36.5746 28.1624L34.1864 30.5507L31.7981 28.1624C30.7781 27.1385 30.2055 25.7521 30.2055 24.3068C30.2055 22.8616 30.7781 21.4752 31.7981 20.4512Z" stroke="#FCB040" stroke-width="3.12195" stroke-linecap="round" stroke-linejoin="round"/>
<path d="M31.7987 40.6507L34.187 43.039L31.7987 45.4273C30.7748 46.4473 29.3884 47.0199 27.9431 47.0199C26.4979 47.0199 25.1115 46.4473 24.0875 45.4273L21.6992 43.039L24.0875 40.6507C25.1115 39.6308 26.4979 39.0581 27.9431 39.0581C29.3884 39.0581 30.7748 39.6308 31.7987 40.6507ZM38.0426 34.4068L40.4309 36.7951L38.0426 39.1834C37.0187 40.2033 35.6323 40.776 34.187 40.776C32.7418 40.776 31.3554 40.2033 30.3314 39.1834L27.9431 36.7951L30.3314 34.4068C31.3554 33.3869 32.7418 32.8142 34.187 32.8142C35.6323 32.8142 37.0187 33.3869 38.0426 34.4068ZM44.2865 28.1629L46.6748 30.5512L44.2865 32.9395C43.2626 33.9594 41.8762 34.5321 40.4309 34.5321C38.9857 34.5321 37.5993 33.9594 36.5753 32.9395L34.187 30.5512L36.5753 28.1629C37.5993 27.143 38.9857 26.5703 40.4309 26.5703C41.8762 26.5703 43.2626 27.143 44.2865 28.1629Z" stroke="#FCB040" stroke-width="3.12195" stroke-linecap="round" stroke-linejoin="round"/>
</svg>

<svg width="65" height="65" viewBox="0 0 65 65" fill="none" xmlns="http://www.w3.org/2000/svg"><rect x=".625" y=".115" width="64" height="63.996" rx="12.441" fill="#F8F1EC"/><path d="M17.016 47.721l21.853-21.853m0 0h3.122a6.244 6.244 0 006.244-6.244v-3.122h-3.122a6.244 6.244 0 00-6.244 6.244v3.122zM19.31 32.939l2.389-2.388 2.388 2.388a5.463 5.463 0 010 7.711l-2.388 2.389-2.389-2.389a5.463 5.463 0 010-7.711zm6.244-6.244l2.389-2.388 2.388 2.388a5.463 5.463 0 010 7.711l-2.389 2.389-2.388-2.389a5.463 5.463 0 010-7.71zm6.244-6.244l2.388-2.388 2.389 2.388a5.463 5.463 0 010 7.711l-2.389 2.389-2.388-2.389a5.463 5.463 0 010-7.71zm.001 20.199l2.388 2.389-2.388 2.388a5.463 5.463 0 01-7.712 0L21.7 43.04l2.388-2.388a5.464 5.464 0 017.712 0zm6.244-6.243l2.388 2.388-2.388 2.388a5.463 5.463 0 01-7.712 0l-2.388-2.388 2.388-2.388a5.464 5.464 0 017.712 0zm6.243-6.244l2.389 2.388-2.389 2.389a5.463 5.463 0 01-7.71 0l-2.389-2.389 2.388-2.388a5.464 5.464 0 017.711 0z" stroke="#FCB040" stroke-width="3.122" stroke-linecap="round" stroke-linejoin="round"/></svg>
